X: 114
T:Hora Chemed
C:Moshiko Halevy 1971
D: Israeli Folk Dance Souvenir (Tikva-148)
O:Israel
I:choreographer Moshiko
L:1/8
M:2/4
Q:1/4=160
K:Gm
|:DD EC|DE ^FD |^FG AF  | G/^F/G/A/ Bz  |\
  ABcA | BG A^F| G z2 E |^F/E/D/C/ D2   :|
|:ddec |ccdB   |BBcA    |B/A/G/A/ d2    |\
  ddec |ccdB   |cz2A    | B/A/G/^F/  G2 :|



